public/images/brand/brand-light-02.svg

<svg width="120" height="24" viewBox="0 0 120 24" fill="none" xmlns="http://www.w3.org/2000/svg">
<g clip-path="url(#clip0_14_11)">
<path fill-rule="evenodd" clip-rule="evenodd" d="M3.64591 2.20068C4.54003 1.42365 5.57913 0.831302 6.70329 0.457801C7.82745 0.0843 9.01442 -0.0629649 10.1958 0.0244973C11.3771 0.11196 12.5295 0.432419 13.5864 0.967396C14.6433 1.50237 15.5838 2.24128 16.3537 3.14152C18.0095 4.81588 18.9766 7.05066 19.0637 9.40382C19.1508 11.757 18.3516 14.0572 16.8242 15.8493L9.76788 22.9078C8.35227 21.967 6.00345 20.0842 6.94429 18.2014C8.82705 15.8483 11.177 13.9688 13.063 11.6123C14.4786 9.72955 13.5334 5.96403 10.7098 5.49361C10.0763 5.2723 9.39659 5.21731 8.73575 5.33392C8.07491 5.45052 7.45506 5.73482 6.93556 6.15958C6.41605 6.58434 6.01428 7.13535 5.76871 7.75985C5.52314 8.38435 5.44199 9.06144 5.53303 9.72629C5.53303 12.0795 7.41579 13.4907 8.82705 14.9031C7.41144 16.3187 5.53303 17.2562 5.53303 19.1357C4.11742 17.253 1.76859 15.8417 0.826669 13.4875C-0.0335016 11.5619 -0.223212 9.40349 0.28787 7.35739C0.798952 5.31128 1.98131 3.49562 3.64591 2.20068Z" fill="#757693"  />
<path fill-rule="evenodd" clip-rule="evenodd" d="M33.7658 2.19949C34.2362 0.78388 35.6485 1.25865 36.5893 1.25865V18.6707H33.7658V17.2551C32.6327 18.1685 31.221 18.6667 29.7656 18.6667C28.3101 18.6667 26.8985 18.1685 25.7654 17.2551C24.462 16.0649 23.6814 14.4083 23.5933 12.6455C23.5052 10.8827 24.1168 9.15649 25.295 7.84233C26.3546 6.68805 27.7966 5.95674 29.354 5.78376C30.9113 5.61079 32.4786 6.00787 33.7658 6.9015V2.19949ZM29.5331 8.3182C27.1799 8.78861 25.3004 12.0826 27.1799 14.4369C27.5315 14.9497 28.0118 15.361 28.5726 15.6295C29.1334 15.898 29.755 16.0143 30.3749 15.9666C30.9949 15.9189 31.5914 15.709 32.1045 15.358C32.6177 15.0069 33.0295 14.527 33.2986 13.9665C34.7077 11.6122 32.3534 8.3182 29.5298 8.3182H29.5331Z" fill="#757693"  />
<path fill-rule="evenodd" clip-rule="evenodd" d="M38.9414 5.96504H41.765V6.90588C42.7059 5.49027 44.5886 5.49027 46.4714 5.96504C46.001 6.90588 45.5306 7.38066 45.5306 8.31823C43.6478 7.84781 41.7661 8.78864 41.7661 10.201V17.2605C41.2946 18.6761 39.8834 18.6761 38.9414 18.6761V5.96504Z" fill="#757693"  />
<path fill-rule="evenodd" clip-rule="evenodd" d="M50.7063 5.96613C55.4126 4.08336 60.119 8.78973 59.1771 13.4961C58.2351 18.2024 51.6471 20.5556 48.3476 17.2605C44.5832 13.9665 45.9945 6.90696 50.7008 5.96613H50.7063ZM52.1219 8.31931C51.3316 8.53014 50.6109 8.9457 50.0326 9.52405C49.4543 10.1024 49.0387 10.8231 48.8279 11.6133C48.7159 12.6056 48.9996 13.6019 49.6174 14.3864C50.2353 15.1708 51.1375 15.68 52.1284 15.8035C53.1193 15.927 54.1189 15.655 54.9104 15.0463C55.702 14.4376 56.2217 13.5413 56.3567 12.552C56.3567 10.201 54.0046 7.8478 52.123 8.31931H52.1219Z" fill="#757693"  />
<path fill-rule="evenodd" clip-rule="evenodd" d="M61.062 5.96519H63.8856V6.90712C65.1727 6.01349 66.74 5.61641 68.2974 5.78938C69.8547 5.96235 71.2967 6.69367 72.3564 7.84795C72.9379 8.45305 73.3892 9.17098 73.6823 9.95739C73.9753 10.7438 74.104 11.582 74.0603 12.4201C74.0167 13.2582 73.8015 14.0784 73.4283 14.8301C73.0551 15.5818 72.5316 16.2489 71.8903 16.7903C70.0076 19.1434 66.242 19.1434 63.89 17.7311V21.9638C63.4195 23.3794 62.0072 23.3794 61.0663 23.3794V5.96519H61.062ZM67.1807 8.31837C64.3571 8.78879 62.948 12.0828 64.3571 13.9667C65.7727 16.3198 69.5339 16.3198 70.4758 13.9667C72.3564 11.6124 70.0043 8.32273 67.1807 8.32273V8.31837Z" fill="#757693"  />
<path fill-rule="evenodd" clip-rule="evenodd" d="M78.9455 6.43562C80.1366 5.76769 81.5102 5.49868 82.8652 5.66799C84.2202 5.83729 85.4854 6.43601 86.4755 7.37645C86.0051 7.84687 85.5347 8.79206 84.5927 9.25922C84.1538 8.90383 83.6382 8.65538 83.0867 8.53351C82.5353 8.41163 81.963 8.41966 81.4152 8.55696C80.8674 8.69426 80.359 8.95707 79.9301 9.32463C79.5013 9.69219 79.1639 10.1544 78.9445 10.6748C78.7401 11.2321 78.6669 11.8289 78.7306 12.4191C78.7943 13.0092 78.9932 13.5767 79.3119 14.0774C79.6305 14.5782 80.0603 14.9987 80.5679 15.3064C81.0754 15.6141 81.6471 15.8007 82.2385 15.8516C83.1793 15.8516 84.1212 15.3812 85.0621 15.3812C85.9029 15.7514 86.5746 16.4231 86.9448 17.264C83.6508 20.0876 78.0025 19.1467 76.5913 14.9108C74.7096 12.0872 76.1208 8.3162 78.9455 6.43562Z" fill="#757693"  />
<path fill-rule="evenodd" clip-rule="evenodd" d="M86.946 14.4369C85.5359 10.201 88.8277 5.49463 93.0636 5.49463C94.7582 5.56795 96.3782 6.2125 97.6599 7.32344C98.9417 8.43438 99.8099 9.94632 100.123 11.6133V18.6707C98.7076 18.6707 97.77 18.6707 96.8292 17.7299C93.5351 20.083 88.3584 18.2003 86.946 14.4358V14.4369ZM93.0647 8.31823C92.4169 8.44078 91.8078 8.71636 91.288 9.122C90.7683 9.52763 90.353 10.0516 90.0767 10.6502C89.8005 11.2489 89.6713 11.9048 89.6999 12.5635C89.7285 13.2222 89.914 13.8645 90.2411 14.4369C92.1239 16.7901 95.8894 16.3197 96.8302 13.9665C97.0713 13.3459 97.1594 12.6764 97.0872 12.0145C97.0149 11.3527 96.7844 10.718 96.4151 10.164C96.0457 9.61003 95.5485 9.1531 94.9654 8.83184C94.3822 8.51057 93.7303 8.33441 93.0647 8.31823Z" fill="#757693"  />
<path fill-rule="evenodd" clip-rule="evenodd" d="M102.006 5.96631H104.829V6.90715C106.245 5.02439 109.536 5.49154 111.419 7.37756C113.772 4.55397 118.478 5.4948 119.419 8.79318C119.889 11.6168 119.419 14.9119 119.419 17.7355C119.419 18.6763 118.003 18.6763 116.595 18.6763C116.595 15.8527 117.066 13.028 116.595 10.2055C116.503 9.71153 116.241 9.26533 115.855 8.94422C115.468 8.62312 114.981 8.44734 114.479 8.44734C113.976 8.44734 113.49 8.62312 113.103 8.94422C112.717 9.26533 112.455 9.71153 112.363 10.2055V18.6763H109.539C109.617 15.6878 109.46 12.6978 109.069 9.73401C108.598 7.85125 105.304 8.3184 105.304 10.2044C104.913 13.0101 104.756 15.8435 104.834 18.6752H102.006V5.96631Z" fill="#757693"  />
</g>
<defs>
<clipPath id="clip0_14_11">
<rect width="119.627" height="23.375" fill="white" transform="translate(0.00125122)"/>
</clipPath>
</defs>
</svg>

<svg xmlns="http://www.w3.org/2000/svg" width="120" height="24" fill="none"><g fill="#757693" fill-rule="evenodd" clip-path="url(#a)" clip-rule="evenodd"><path d="M3.646 2.2a8.975 8.975 0 0 1 12.708.942 9.4 9.4 0 0 1 .47 12.707l-7.056 7.059c-1.416-.941-3.765-2.824-2.824-4.707 1.883-2.353 4.233-4.232 6.119-6.589 1.416-1.882.47-5.648-2.353-6.118a3.92 3.92 0 0 0-5.177 4.232c0 2.353 1.883 3.765 3.294 5.177-1.416 1.416-3.294 2.353-3.294 4.233-1.416-1.883-3.764-3.294-4.706-5.648A9.43 9.43 0 0 1 3.646 2.2m30.12 0c.47-1.416 1.883-.941 2.823-.941V18.67h-2.823v-1.416a6.374 6.374 0 0 1-8 0 6.695 6.695 0 0 1-.471-9.413 6.48 6.48 0 0 1 8.47-.94zm-4.233 6.118c-2.353.47-4.233 3.765-2.353 6.119a3.545 3.545 0 0 0 6.119-.47c1.409-2.355-.946-5.649-3.77-5.649zm9.408-2.353h2.824v.94c.94-1.415 2.824-1.415 4.706-.94-.47.94-.94 1.416-.94 2.353-1.883-.47-3.765.47-3.765 1.883v7.06c-.471 1.415-1.883 1.415-2.825 1.415zm11.765.001c4.707-1.883 9.413 2.824 8.471 7.53s-7.53 7.06-10.83 3.765c-3.764-3.294-2.352-10.354 2.354-11.295zm1.416 2.353a4.65 4.65 0 0 0-3.294 3.294 3.794 3.794 0 0 0 7.529.939c0-2.351-2.352-4.704-4.234-4.233zm8.94-2.354h2.824v.942a6.48 6.48 0 0 1 8.47.941 6.14 6.14 0 0 1-.466 8.942c-1.882 2.353-5.648 2.353-8 .941v4.233c-.47 1.415-1.883 1.415-2.824 1.415V5.965zm6.119 2.353c-2.824.47-4.233 3.765-2.824 5.649 1.416 2.353 5.177 2.353 6.119 0 1.88-2.355-.472-5.644-3.295-5.644zm11.765-1.882a6.39 6.39 0 0 1 7.53.94c-.47.47-.941 1.416-1.883 1.883a3.642 3.642 0 0 0-5.648 1.416 3.862 3.862 0 0 0 3.294 5.177c.94 0 1.882-.47 2.823-.47a3.68 3.68 0 0 1 1.883 1.882c-3.294 2.824-8.942 1.883-10.354-2.353-1.881-2.824-.47-6.595 2.355-8.475"/><path d="M86.946 14.437c-1.41-4.236 1.882-8.942 6.118-8.942a7.51 7.51 0 0 1 7.059 6.118v7.058c-1.415 0-2.353 0-3.294-.941-3.294 2.353-8.47.47-9.883-3.294m6.119-6.119a4.138 4.138 0 0 0-2.824 6.119c1.883 2.353 5.648 1.883 6.59-.47a4.148 4.148 0 0 0-3.766-5.649m8.941-2.351h2.823v.941c1.416-1.883 4.707-1.415 6.59.47 2.353-2.823 7.059-1.882 8 1.416.47 2.824 0 6.119 0 8.942 0 .941-1.416.941-2.824.941 0-2.823.471-5.648 0-8.47a2.154 2.154 0 0 0-3.492-1.262 2.15 2.15 0 0 0-.74 1.261v8.471h-2.824a57 57 0 0 0-.47-8.942c-.471-1.883-3.765-1.416-3.765.47a51 51 0 0 0-.47 8.471h-2.828z"/></g><defs><clipPath id="a"><path fill="#fff" d="M.001 0h119.627v23.375H.001z"/></clipPath></defs></svg>
